src/assets/svg/ic_iw_active_circle_voice_chat.svg

<svg xmlns="http://www.w3.org/2000/svg" width="16" height="16">
    <path d="M8 1.1a6.9 6.9 0 100 13.8A6.9 6.9 0 008 1.1zm3.401 10.87l-.312.349c-.361.363-.834.618-1.243.683-1.013.163-2.956-.433-4.651-2.128l-.008-.01a.07.07 0 00-.009-.007c-1.696-1.696-2.29-3.638-2.127-4.652.064-.409.32-.881.682-1.244l.311-.349a.5.5 0 01.706-.017l1.38 1.379a.502.502 0 01-.016.707l-.196.196-.119.118-.155.151c-.533.534-.553 1.376-.046 1.885l1.148 1.148.231.229c.509.507 1.351.487 1.884-.044l.275-.271.195-.194a.505.505 0 01.706-.018l1.379 1.38a.503.503 0 01-.015.709zm.365-4.09l-.016 1.903-1.562-1.567c-1.557-.027-2.809-1.001-2.809-2.202 0-1.219 1.285-2.206 2.871-2.206s2.871.987 2.871 2.206c0 .789-.543 1.476-1.355 1.866z" fill="#3d464d"/>
</svg>

<?xml version="1.0" encoding="iso-8859-1"?>
<!-- Generator: Adobe Illustrator 16.0.4, SVG Export Plug-In . SVG Version: 6.00 Build 0)  -->
<!DOCTYPE svg PUBLIC "-//W3C//DTD SVG 1.1//EN" "http://www.w3.org/Graphics/SVG/1.1/DTD/svg11.dtd">
<svg version="1.1" id="artwork" xmlns="http://www.w3.org/2000/svg" xmlns:xlink="http://www.w3.org/1999/xlink" x="0px" y="0px"
	 width="16px" height="16px" viewBox="0 0 16 16" style="enable-background:new 0 0 16 16;" xml:space="preserve">
<g>
	<path style="fill:#3D464D;" d="M8,1.1c-3.811,0-6.9,3.09-6.9,6.9s3.089,6.9,6.9,6.9s6.9-3.09,6.9-6.9S11.811,1.1,8,1.1z
		 M11.401,11.97l-0.312,0.349c-0.361,0.363-0.834,0.618-1.243,0.683c-1.013,0.163-2.956-0.433-4.651-2.128
		c-0.003-0.004-0.006-0.007-0.008-0.01c-0.002-0.002-0.006-0.005-0.009-0.007C3.482,9.161,2.888,7.219,3.051,6.205
		c0.064-0.409,0.32-0.881,0.682-1.244l0.311-0.349c0.201-0.2,0.516-0.206,0.706-0.017l1.38,1.379
		c0.189,0.191,0.184,0.507-0.016,0.707L5.918,6.877L5.799,6.995L5.644,7.146C5.111,7.68,5.091,8.522,5.598,9.031l1.148,1.148
		l0.231,0.229c0.509,0.507,1.351,0.487,1.884-0.044l0.275-0.271l0.195-0.194c0.198-0.197,0.515-0.205,0.706-0.018l1.379,1.38
		C11.607,11.453,11.6,11.77,11.401,11.97z M11.766,7.88L11.75,9.783l-1.562-1.567C8.631,8.189,7.379,7.215,7.379,6.014
		c0-1.219,1.285-2.206,2.871-2.206s2.871,0.987,2.871,2.206C13.121,6.803,12.578,7.49,11.766,7.88z"/>
</g>
</svg>
